!!!OTL: Ritter Ulrich
!!!ARE: Europa, Mitteleuropa, Deutschland
!!!SCT: A0013A
!!!YEM: Copyright 1995, estate of Helmut Schaffrath.
**kern
*ICvox
*Ivox
*M6/4
*k[f#]
*e:
{4e
=1
2e
4a
2a
4gn
=2
2a
4b
2ccn}
{4b
=3
2a
4a
4gn
4fn
4e
=4
2a
8gn
8fn
2e}
{8a
8b
=5
4ccn
4b
4a
2gn
4a
=6
2e
4dn
2cn
4r}
=7
{2gn
4fn
4e
4fn
4gn
=8
4a
4b
4a
2gn
4a
=9
2.fn
2e}
==
!!!AGN: Romanze, Ballade, Lied
!! Melodie nach Nicolai, Almanach II, No 21, S.210
!!!ONB: ESAC (Essen Associative Code) Database: ALTDEU
!!!AMT: compound duple
!!!AIN: vox
!!!EED: Helmut Schaffrath
!!!EEV: 1.0
*-
